X: 8
T: Jenny Lind
R: polka
M: 2/4
L: 1/8
K: Dmaj
FA GB | Af fe/f/ | Ge ed/c/ | Ad d/c/B/A/ |FA/F/ GB/G/ | Af f2 | ge ce/c/ | dc d :|dB Bd/B/ | AF F2 | GE EF/A/ | BA AF/A/ |dB B/c/d/B/ | AF FA/F/ | GE e/f/e/c/ | df d :|


Tune 4883	Setting 17311

